packages/foundations/assets/icons/functional/images/maps/station_28.svg

<svg width="28" height="28" viewBox="0 0 28 28" fill="none" xmlns="http://www.w3.org/2000/svg">
<g clip-path="url(#clip0_186_122)">
<path fill-rule="evenodd" clip-rule="evenodd" d="M14 1.75C20.7655 1.75 26.25 7.23451 26.25 14C26.25 20.7655 20.7655 26.25 14 26.25C7.23451 26.25 1.75 20.7655 1.75 14C1.75 7.23451 7.23451 1.75 14 1.75ZM14 3.5C8.20101 3.5 3.5 8.20101 3.5 14C3.5 19.799 8.20101 24.5 14 24.5C19.799 24.5 24.5 19.799 24.5 14C24.5 8.20101 19.799 3.5 14 3.5ZM18.0163 7.4025C18.6985 7.4025 19.3288 7.96418 19.3288 8.715C19.3288 10.2752 19.3288 13.641 19.3288 18.8125C19.3288 19.5374 18.7411 20.125 18.0163 20.125C17.334 20.125 16.7037 19.5592 16.7037 18.8125C16.7037 18.3707 16.7037 16.9649 16.7037 14.595H11.2962L11.2962 18.8125C11.2962 19.5374 10.7086 20.125 9.98375 20.125C9.30152 20.125 8.67125 19.565 8.67125 18.8125C8.67125 18.195 8.67125 14.8292 8.67125 8.715C8.67125 8.03277 9.25368 7.4025 9.98375 7.4025C10.7138 7.4025 11.2962 8.09536 11.2962 8.715C11.2962 9.84401 11.2962 11.1448 11.2962 12.6175H16.7037L16.7037 8.715C16.7037 7.99013 17.2914 7.4025 18.0163 7.4025Z" fill="#1A1C1F"/>
</g>
<defs>
<clipPath id="clip0_186_122">
<rect width="28" height="28" fill="white"/>
</clipPath>
</defs>
</svg>

<svg xmlns="http://www.w3.org/2000/svg" width="28" height="28" fill="none"><g clip-path="url(#a)"><path fill="#1A1C1F" fill-rule="evenodd" d="M14 1.75c6.765 0 12.25 5.485 12.25 12.25S20.765 26.25 14 26.25 1.75 20.765 1.75 14 7.235 1.75 14 1.75m0 1.75C8.201 3.5 3.5 8.201 3.5 14S8.201 24.5 14 24.5 24.5 19.799 24.5 14 19.799 3.5 14 3.5m4.016 3.903c.683 0 1.313.561 1.313 1.312v10.098c0 .724-.588 1.312-1.313 1.312-.682 0-1.312-.566-1.312-1.312v-4.218h-5.408v4.217c0 .725-.587 1.313-1.312 1.313-.682 0-1.313-.56-1.313-1.312V8.715c0-.682.583-1.312 1.313-1.312s1.312.692 1.312 1.312v3.903h5.408V8.715c0-.725.587-1.312 1.312-1.312" clip-rule="evenodd"/></g><defs><clipPath id="a"><path fill="#fff" d="M0 0h28v28H0z"/></clipPath></defs></svg>
